X: 127
T:Lafferty`s
T:Rattigan`s
M:4/4
L:1/8
Q:224
K:BMinor
B2 AF BFAF | ~E3 F EDB,D | B2 AF BFAF | FDFA FE E2 |
B2 AF BFAF | ~E3 F EDB,A, | B, ~E3 DEFA | dBAF FE E2 :|
| eB (3BBB egfe | fd (3ddd Adfd | eB (3BBB egfe | dBAF FE E2 |
eB (3BBB egfe | fd (3ddd bdad | ~B3 d egfe | dBAF FE E2 :|
